X:167
T:Freeborn Man
C:Ricky Skaggs solo
N:From "J. D. Crowe and the New South - Holiday in Japan" 
R:bluegrass
L:1/8
Q:1/4=235
M:4/4
K:C
z2 F2 _Bc dd | "Bb"ff fg f2 fg | f{^c}d dd dd df | g_b gf ^c=c _Bc | dd dd dd df | 
{^f}g2 {f}gg =fd c_B | {c}dA {^c}dd _BG FA | {A}_B2 Bc df g2 | _b2 g2 f^d c_B | 
"Eb"^d4 d4 | ^d4 =d4 | z2 d4 d2 | z2 ^d2 _BG BB | "Bb"FG _Bc df gf | _b2 gb ge ^fa | 
^fe =fg fd cd | _BF2F G2 ^G2 | "F"{^G}A2 c2 cd cG | Ac AG F3e | f2 g2 _b2 g2 | 
f2 gf {^c}d_B GF | "Bb"_B2 GB d2 B2 | ^d2 _B2 e2 f2 | {A}_B2 B2 d2 B2 | ^d2 _B2 e2 f2 | 
{A}_B2 B2 d2 B2 | ^d2 _B2 e2 f2 | 


